X:1
T:THAT CORRUGATED RAG.
T:THAT CORRUGATED RAG.
T:EDW. J. MELLINGER
T:Copyright 1911 by Stark Music Ptg, &amp; Pub.Co.
T:Copyright 1911 by Stark Music Ptg, &amp; Pub.Co.
T:Copyright 1911 by Stark Music Ptg, &amp; Pub.Co.
T:Copyright 1911 by Stark Music Ptg, &amp; Pub.Co.
C:EDW. J. MELLINGER
Z:Copyright 1911 by Stark Music Ptg, & Pub.Co.
%%score { 1 | 2 }
L:1/8
Q:1/4=90
M:2/4
K:C
V:1 treble nm="Piano" snm="Pno."
V:2 bass 
V:1
"^Tempo di Ragetto." (3g/a/b/ | c' ^f/g/- g/^d/e | B/ c A/ G2 | G/f/d/B/ A^G | =G2{/^f} g2 || %5
{gab} c' ^f/g/- g/^d/e | B/ c A/ G2 | G/c/e/[Gg]/- [Gg]/e/[Aa]/e/ | g/^f/g/^g/ a/g/a/c'/ | %9
 c' ^f/g/- g/^d/e | B/ c A/ G2 | G/A/B/[Ge]/- [Ge]/^d/[Ge] | [F=d]2 z2 |{gab} c' ^f/g/- g/^d/e | %14
 B/ c A/ G2 | G/c/e/[Gg]/- [Gg]/e/[Aa]/e/ | g/^f/g/^g/ a/g/a/c'/ | c' ^f/g/- g/^d/e | B/ c A/ G2 | %19
 [Ge]/^d/e/[Af]/- [Af]/d/[Ge] | [Ec]G/A/ c/A/G/^F/ ||!p!!ff!"_-" F/G/B/[Fe]/- [Fe]/B/[Fd] | %22
 F/G/B/[Fe]/- [Fe]/B/[Fe]/B/ | E/G/B/[Ed]/- [Ed]/G/[Ec] | E/G/B/[Ed]/- [Ed]/G/[Ec]/G/ | %25
 [FB]^A/[FB]/- [FB]/A/[FB]/d/ | [FA]^G/[FA]/- [FA]/F/=G/^G/ | [EA]^G/[EA]/- [EA]/G/[EA]/c/ | %28
 [EA]^G/=G/- G/G/A/G/ | F/G/B/[Fe]/- [Fe]/B/[Fd] | F/G/B/[Fe]/- [Fe]/B/[Fe]/B/ | %31
 E/G/B/[Ed]/- [Ed]/G/[Ec] | E/G/B/[Ed]/- [Ed]/c/B/_B/ | A/^c/e/[Af]/- [Af]/c/[Ae]/c/ | %34
 ^F/A/c/[Fe]/- [Fe]/A/[Fd]/A/ | =F/G/B/[Fe]/- [Fe]/B/[Fd]/B/ | [Ec]/G[Ec]/- [Ec]/G/[Ec] || %37
{gab} c' ^f/g/- g/^d/e | B/ c A/ G2 | G/c/e/[Gg]/- [Gg]/e/[Aa]/e/ | g/^f/g/^g/ a/g/a/c'/ | %41
 c' ^f/g/- g/^d/e | B/ c A/ G2 | G/A/B/[Ge]/- [Ge]/^d/[Ge] | [F=d]2 z2 |{gab} c' ^f/g/- g/^d/e | %46
 B/ c A/ G2 | G/c/e/[Gg]/- [Gg]/e/[Aa]/e/ | g/^f/g/^g/ a/g/a/c'/ | c' ^f/g/- g/^d/e | B/ c A/ G2 | %51
 [Ge]/^d/e/[Af]/- [Af]/d/[Ge] | [Ec]2 z (3g/a/b/ ||[M:2/4]!f!"^TRIO." c'_a f<c | _AFC z | %55
 [CEG_Bc]/[CEGBc][CEGBc]/ [CEGBc][CEGBc] | [CEGBc] z [cegc'] z |: %57
!ff! [fc']_a/[fc']/- [fc']/a/[fc']/a/ | [ec']/b/[ec']/[eg]/- [eg]/c/e/g/ | %59
 [fc']_a/[fc']/- [fc']/a/[fc']/a/ | [ec']/b/[ec']/[eg]/- [eg]/c/e/f/ | %61
 [Bg]/^f/[Bg]/d/- d/e/=f/^f/ | [Bg]/^f/[Bg]/d/- d/e/=f/^f/ | [cg]/^f/[cg]/c/- c/d/e/=f/ | %64
 [cg]/^f/[cg]/c/- c/d/e/=f/ | [fc']_a/[fc']/- [fc']/a/[fc']/a/ | c'/b/[ec']/[eg]/- [eg]/c/e/g/ | %67
 [fc']_a/[fc']/- [fc']/a/[fc']/a/ | [ec']/b/[ec']/[eg]/- [eg]/c/e/f/ | %69
 [Bg]/^f/[Bg]/d/- d/e/=f/^f/ | [Bg]/^f/[Bg]/d/- d/[Be]B/ | c^f/g/- g/^a/b | [c'e'g'c''] z z2 :| %73
V:2
 x |!8va(! [Cc][^F,^F][G,G][^D,^D] | [E,E]!8va)![E,CE] [C,G,C]2 | [G,,G,][G,B,F] [A,,A,][^A,,^A,] | %4
 [B,,B,]2 [G,,G,]2 ||!8va(! [Cc][^F,^F][G,G][^D,^D] | [E,E]!8va)![G,CE] [G,,G,][G,CE] | %7
 [G,,G,][G,CE] [C,C][G,CE] |!8va(! [G,G][^G,^G][A,A][B,B] | [Cc][^F,^F][G,G][^D,^D] | %10
 [E,E]!8va)![G,CE] [G,,G,][G,CE] | [E,D][G,B,F] [G,,G,][G,B,F] | [G,,G,][A,,A,][B,,B,][G,,G,] | %13
!8va(! [Cc][^F,^F][G,G][^D,^D] | [E,E]!8va)![G,CE] [G,,G,][G,CE] | [G,,G,][G,CE] [C,C][G,CE] | %16
!8va(! [G,G][^G,^G][A,A][B,B] | [Cc][^F,^F][G,G][^D,^D] | [E,E]!8va)![G,CE] [G,,G,][G,CE] | %19
 [G,,G,][G,,G,][A,,A,][B,,B,] | [C,C][G,,G,][A,,A,][_A,,_A,] || [G,,G,][G,B,F] [B,,B,][G,B,F] | %22
 [G,,G,][G,B,F] [B,,B,][G,B,F] | [C,C][G,C] [C,C][G,C] | [C,C][G,C] [C,C][G,C] | %25
 D,[F,G,B,] G,,[F,G,B,] | D,[F,G,B,] G,,[F,G,B,] | C,[E,G,C] G,,[E,G,C] | %28
 C,[E,G,C] [A,,A,][_A,,_A,] | [G,,G,][G,B,F] [B,,B,][G,B,F] | [G,,G,][G,B,F] [B,,B,][G,B,F] | %31
 C,[G,C] C,[G,C] | C,[G,C] C,[G,C] | [A,,A,][A,^CE] [^C,C][A,CE] | D,[^F,A,C] A,,[F,A,C] | %35
 D,[=F,G,B,] B,,[F,G,B,] | [C,C][G,,G,][E,,E,][C,,C,] ||!8va(! [Cc][^F,^F][G,G][^D,^D] | %38
 [E,E]!8va)![G,CE] [G,,G,][G,CE] | [G,,G,][G,CE] [C,C][G,CE] |!8va(! [G,G][^G,^G][A,A][B,B] | %41
 [Cc][^F,^F][G,G][^D,^D] | [E,E]!8va)![G,CE] [G,,G,][G,CE] | [E,D][G,B,F] [G,,G,][G,B,F] | %44
 [G,,G,][A,,A,][B,,B,][G,,G,] |!8va(! [Cc][^F,^F][G,G][^D,^D] | [E,E]!8va)![G,CE] [G,,G,][G,CE] | %47
 [G,,G,][G,CE] [C,C][G,CE] |!8va(! [G,G][^G,^G][A,A][B,B] | [Cc][^F,^F][G,G][^D,^D] | %50
 [E,E]!8va)![G,CE] [G,,G,][G,CE] | [G,,G,][G,,G,][A,,A,][B,,B,] | [C,C][G,,G,] [C,,C,] z || %53
[M:2/4]!8va(! [Cc][_A,_A] [F,F][C,C]!8va)! | [_A,,_A,][F,,F,][C,,C,] z | %55
 [C,,C,][^C,,^C,][D,,D,][^D,,^D,] | [E,,E,] z [C,E,G,C] z |: %57
!8va(! !>![Cc]!>![_A,_A]!>![F,F]!>![A,A] | !>![G,G]!>![E,E]!>![C,C]!>![F,F] | %59
 !>![Cc]!>![_A,_A]!>![F,F]!>![A,A] | !>![G,G]!>![E,E]!>![C,C]!>![^C,^C]!8va)! | %61
 D,[G,B,F] [G,,G,][G,B,F] | D,[G,B,F] [G,,G,][B,,B,] | C,[G,CE] E,[G,CE] | C,[G,CE] E,[G,CE] | %65
!8va(! !>![Cc]!>![_A,_A]!>![F,F]!>![A,A] | !>![G,G]!>![E,E]!>![C,C]!>![F,F] | %67
 !>![Cc]!>![_A,_A]!>![F,F]!>![A,A] | !>![G,G]!>![E,E]!>![C,C]!>![^C,^C]!8va)! | %69
 D,[G,B,F] [G,,G,][G,B,F] | D,[G,B,F] [G,,G,][B,,B,] | [C,C][A,,A,] [G,,G,][E,,E,] | %72
 z!8vb(! [C,,,E,,,G,,,C,,]!8vb)! z2 :| %73

